X:1
T:Eddie Kelly's
Z:Lesl Harker <lmh@RCONS.COM> irtrad-l 2001-6-13
L:1/8
M:C|
K:Edor
EFGA BE~E2|GEcE GE~ED|EFGA Bze~e|dBAG Fddz:||
e~e2d cA(3Bcd|e~e2f gz{b}ag|eged cABc|dBAG Fddz:|
